packages/core/src/svgs/tokens/mono/SAKAI.svg

<svg width="24" height="24" viewBox="0 0 24 24" fill="none" xmlns="http://www.w3.org/2000/svg">
<path d="M7.55577 9.50005V4.5L3.11133 7L7.55577 9.50005Z" fill="white"/>
<path d="M11.9996 7L7.55518 9.50005V14.5L11.9996 17V7Z" fill="white"/>
<path d="M3.11133 7L7.55577 9.50005V14.5L3.11133 17V7Z" fill="white"/>
<path d="M7.55518 4.5L11.9996 7L7.55518 9.50005V4.5Z" fill="white"/>
<path d="M3.11133 17L7.55577 14.5L12.0002 17V22L3.11133 17Z" fill="white"/>
<path d="M16.4441 4.50001L11.9996 7.00001L7.55518 4.50001L11.9996 2L16.4441 4.50001Z" fill="white"/>
<path d="M12 7L16.4445 9.50005V14.5L12 17V7Z" fill="white"/>
<path d="M20.8883 7L16.4438 9.50005V14.5L20.8883 17V7Z" fill="white"/>
<path d="M16.4445 4.5L12 7L16.4445 9.50005V4.5Z" fill="white"/>
<path d="M20.889 17L16.4445 14.5L12 17V22L20.889 17Z" fill="white"/>
<path d="M16.4438 9.50005V4.5L20.8883 7L16.4438 9.50005Z" fill="white"/>
</svg>

<svg xmlns="http://www.w3.org/2000/svg" width="24" height="24" fill="none" viewBox="0 0 24 24">
    <path fill="#fff" d="M7.556 9.5v-5L3.11 7z"/>
    <path fill="#fff" d="M12 7 7.555 9.5v5L12 17z"/>
    <path fill="#fff" d="m3.111 7 4.445 2.5v5L3.11 17z"/>
    <path fill="#fff" d="M7.555 4.5 12 7 7.555 9.5zM3.111 17l4.445-2.5L12 17v5z"/>
    <path fill="#fff" d="M16.444 4.5 12 7 7.555 4.5 12 2zM12 7l4.445 2.5v5L12 17z"/>
    <path fill="#fff" d="m20.888 7-4.444 2.5v5l4.444 2.5z"/>
    <path fill="#fff" d="M16.445 4.5 12 7l4.445 2.5zM20.889 17l-4.444-2.5L12 17v5z"/>
    <path fill="#fff" d="M16.444 9.5v-5L20.888 7z"/>
</svg>
